src/bright/hiso font bright_k.svg

<svg xmlns="http://www.w3.org/2000/svg" width="90" height="126" viewBox="0 0 90 126"><path fill="#000101" d="M72 27l-36-18-12 30-24-12v72l36 18v-36l36 18-18-27 18-45zm-34.43-13.86l30.62 15.312-16.32 40.81-15.87-7.932v-16.33l-9.31-4.65 10.88-27.21zm-1.57 51.54l12.98 6.48-12.98 6.49v-12.97zm27.24 26.581l-23.881-11.941 11.94-5.97 11.941 17.911z"/></svg>

<svg xmlns="http://www.w3.org/2000/svg" width="90" height="126"><path fill="#000101" d="M72 27L36 9 24 39 0 27v72l36 18V81l36 18-18-27 18-45zM37.57 13.14l30.62 15.312-16.32 40.81L36 61.33V45l-9.31-4.65 10.88-27.21zM36 64.68l12.98 6.48L36 77.65V64.68zm27.24 26.581L39.359 79.32l11.94-5.97L63.24 91.261z"/></svg>
